docs/icons/ln.svg

<svg width="35px" height="37px" viewBox="0 0 35 37" version="1.1" xmlns="http://www.w3.org/2000/svg" xmlns:xlink="http://www.w3.org/1999/xlink">
<title>lapa-logo</title>
<defs>
<linearGradient x1="50%" y1="0.384646046%" x2="50%" y2="131.020006%" id="linearGradient-1">
<stop stop-color="#617BE0" offset="0%"></stop>
<stop stop-color="#734CB9" offset="100%"></stop>
</linearGradient>
</defs>
<g id="Page-1" stroke="none" stroke-width="1" fill="none" fill-rule="evenodd">
<g id="Artboard" transform="translate(-292.000000, -329.000000)">
<g id="lapa-logo" transform="translate(292.000000, 329.000000)">
<g id="logo-1.0">
<path d="M33.916978,6.9353052 C33.1988969,7.43752806 32.7454862,7.70219843 32.0550653,7.86327855 C32.1163517,6.93096634 32.3810221,5.76381342 33.0020212,4.43720745 L33.6181391,3.11982156 L32.3940387,3.90135844 C32.0122191,4.14487687 31.1927172,4.47354539 30.3981638,4.79136677 C30.0017006,4.95027746 29.6079492,5.11081523 29.2331803,5.27189535 C26.4704122,1.94995686 22.1803659,0.0793665114 16.7459457,0.0793665114 C9.47727311,0.0793665114 4.03471755,3.80373412 1.8441364,9.79081641 C1.61905812,9.8607805 1.49214651,9.90091494 1.48346879,9.9052538 C1.36089604,9.9459306 1.26327173,10.0348772 1.20632421,10.1493146 C-0.812872036,14.2674336 0.43943098,16.7188886 0.494209068,16.8203094 C0.56417316,16.9515599 0.687288268,17.0302017 0.820708165,17.0578619 C1.216629,28.017276 7.94565608,36.4682875 16.4894107,36.4682875 C25.6058946,36.4682875 32.0805561,28.8139989 32.6565396,17.663675 C32.6690138,17.663675 32.679861,17.6745222 32.6923352,17.6745222 C32.7644687,17.6745222 32.8387716,17.6571668 32.9065663,17.6235406 C33.0486639,17.5535765 33.1457459,17.4201566 33.1690672,17.2634154 C33.4467542,15.3499788 33.2558444,13.8861564 32.9635138,12.8182549 C33.8258619,11.4775476 34.1566999,9.61292321 34.3725581,8.36929791 C34.4446916,7.95439458 34.5081474,7.5958964 34.5672644,7.40335955 L34.9338979,6.22319006 L33.916978,6.9353052 L33.916978,6.9353052 Z" id="face" fill="url(#linearGradient-1)"></path>
<path d="M29.8200109,21.8691136 C27.5399408,30.6677761 23.3540271,25.6043283 17.2270166,25.6043283 C11.1000062,25.6043283 5.79303993,31.4682955 3.79499562,21.8691136 C2.37781599,15.0619871 10.6802216,16.3565939 16.8072321,16.3565939 C22.9320731,16.3565939 31.5061998,15.3543176 29.8200109,21.8691136 L29.8200109,21.8691136 L29.8200109,21.8691136 Z" id="mask" fill="#FFFFFF"></path>
<path d="M11.1699703,22.4114709 C11.1699703,23.3052757 10.4453809,22.5324166 9.5510337,22.5324166 C8.65722886,22.5324166 7.9326395,23.3052757 7.9326395,22.4114709 C7.9326395,21.5171237 8.65722886,20.7930767 9.5510337,20.7930767 C10.4453809,20.7930767 11.1699703,21.5171237 11.1699703,22.4114709 L11.1699703,22.4114709 L11.1699703,22.4114709 Z" id="eye" fill="#6C60C9"></path>
<path d="M25.5614213,22.4114709 C25.5614213,23.3052757 24.836832,22.5324166 23.9430271,22.5324166 C23.0486799,22.5324166 22.3240906,23.3052757 22.3240906,22.4114709 C22.3240906,21.5171237 23.0486799,20.7930767 23.9430271,20.7930767 C24.836832,20.7930767 25.5614213,21.5171237 25.5614213,22.4114709 L25.5614213,22.4114709 L25.5614213,22.4114709 Z" id="eye" fill="#6C60C9"></path>
<path d="M28.0573496,6.35064403 C28.9153589,5.70415412 31.7117532,4.8380095 32.6185746,4.25931426 C31.9487633,5.68951047 31.6694493,6.94560999 31.6206371,7.95222515 C31.5994852,7.95439458 31.5864686,7.96036051 31.5653167,7.96252994 C31.4427439,7.97988537 31.3174594,8.00266438 31.1948867,8.02598574 L31.1948867,8.03683289 C31.1417356,8.04768003 31.0885846,8.06449311 31.035976,8.0747979 C31.0338065,8.0710014 31.0316371,8.06666254 31.0294677,8.06015425 C30.0760035,8.2678771 29.1247088,8.65132371 28.3176812,9.18717273 C27.696682,8.98161931 27.0485651,8.81620033 26.4004481,8.64915428 C26.6228146,7.78246731 27.2307971,6.97110078 28.0573496,6.35064403 L28.0573496,6.35064403 L28.0573496,6.35064403 Z" id="Path" fill="#FFFFFF"></path>
<path d="M32.7942983,12.2677622 C32.4851547,11.3907705 32.1375037,10.890717 32.0675396,10.7952621 C32.0653701,10.7930927 32.0653701,10.7909233 32.0632007,10.7909233 C32.0610313,10.7887538 32.0588618,10.784415 32.0572348,10.7827879 L32.0572348,10.7827879 C32.0507265,10.7741102 32.0420488,10.7719408 32.0355405,10.7654325 C32.0355405,10.7632631 32.0339134,10.7610936 32.0339134,10.7594666 C31.9932366,10.7144509 31.9465939,10.6764859 31.8939852,10.6509951 C30.923708,10.1661277 29.9046186,9.74254661 28.8453948,9.36940478 C29.7072006,8.86121599 30.6970027,8.51573439 31.624976,8.38231449 C32.7308425,8.22123437 33.2433702,7.92239549 34.1604964,7.28241388 C33.9234863,8.0455106 33.7455931,10.5305918 32.7942983,12.2677622 L32.7942983,12.2677622 L32.7942983,12.2677622 Z" id="Path" fill="#FFFFFF"></path>
<path d="M32.6901657,17.1956207 C32.6901657,17.1956207 18.5042681,9.32059263 0.916163051,16.5957735 C0.916163051,16.5957735 -0.298174954,14.305941 1.63858298,10.3586645 C1.63858298,10.3586645 18.7353123,4.60262643 31.6797541,11.078915 C31.6797541,11.078915 33.2835046,13.1170938 32.6901657,17.1956207 L32.6901657,17.1956207 L32.6901657,17.1956207 Z" id="top" fill="#FFFFFF"></path>
</g>

</g>
 </g>
</g>
</svg>

<svg xmlns="http://www.w3.org/2000/svg" width="35" height="37" xmlns:v="https://vecta.io/nano"><defs><linearGradient x1="50%" y1="0.384646046%" x2="50%" y2="131.020006%" id="A"><stop stop-color="#617be0" offset="0%"/><stop stop-color="#734cb9" offset="100%"/></linearGradient></defs><g fill-rule="evenodd"><path d="M33.917 6.935c-.718.502-1.171.767-1.862.928.061-.932.326-2.099.947-3.426l.616-1.317-1.224.782c-.382.244-1.201.572-1.996.89l-1.165.481C26.47 1.95 22.18.079 16.746.079 9.477.079 4.035 3.804 1.844 9.791l-.361.114a.48.48 0 0 0-.277.244c-2.019 4.118-.767 6.57-.712 6.671a.47.47 0 0 0 .326.238c.396 10.959 7.125 19.41 15.669 19.41 9.116 0 15.591-7.654 16.167-18.805.012 0 .023.011.036.011.072 0 .146-.017.214-.051.142-.07.239-.203.263-.36.278-1.913.087-3.377-.206-4.445.862-1.341 1.193-3.205 1.409-4.449.072-.415.136-.773.195-.966l.367-1.18-1.017.712h0z" fill="url(#A)"/><path d="M29.82 21.869c-2.28 8.799-6.466 3.735-12.593 3.735S5.793 31.468 3.795 21.869c-1.417-6.807 6.885-5.513 13.012-5.513s14.699-1.002 13.013 5.513h0 0z" fill="#fff"/><path d="M11.17 22.411c0 .894-.725.121-1.619.121s-1.618.773-1.618-.121a1.62 1.62 0 0 1 1.618-1.618 1.62 1.62 0 0 1 1.619 1.618h0 0zm14.391 0c0 .894-.725.121-1.618.121s-1.619.773-1.619-.121a1.62 1.62 0 0 1 1.619-1.618 1.62 1.62 0 0 1 1.618 1.618h0 0z" fill="#6c60c9"/><g fill="#fff"><path d="M28.057 6.351c.858-.646 3.654-1.513 4.561-2.091-.67 1.43-.949 2.686-.998 3.693-.021.002-.034.008-.055.01l-.37.063v.011l-.159.038c-.96.193-1.911.577-2.718 1.112L26.4 8.649c.222-.867.83-1.678 1.657-2.299h0 0z"/><path d="M32.794 12.268c-.309-.877-.657-1.377-.727-1.473l-.01-.012c-.007-.009-.015-.011-.022-.017a.41.41 0 0 0-.142-.114 26.6 26.6 0 0 0-3.049-1.282c.862-.508 1.852-.854 2.78-.987 1.106-.161 1.618-.46 2.536-1.1-.237.763-.415 3.248-1.366 4.985h0 0zm-.104 4.928s-14.186-7.875-31.774-.6c0 0-1.214-2.29.722-6.237 0 0 17.097-5.756 30.041.72 0 0 1.604 2.038 1.01 6.117h0 0z"/></g></g></svg>
